src/assets/partners/upper.svg

<svg width="156" height="49" viewBox="0 0 156 49" fill="none" xmlns="http://www.w3.org/2000/svg">
<g clip-path="url(#clip0_2647_8)">
<path d="M8.69984 0.30995L11.6098 1.99995C12.2698 2.39995 12.3998 2.99995 11.9598 3.84995C9.04984 8.84995 6.70984 13.3 6.70984 24.2C6.70984 35.79 9.26984 39.1 11.9998 44.75C12.4398 45.59 12.3498 46.21 11.7798 46.52L8.37984 48.2799C8.12769 48.4406 7.83839 48.5336 7.53984 48.5499C7.24391 48.5588 6.95138 48.4849 6.6952 48.3365C6.43902 48.1881 6.22936 47.9711 6.08984 47.7099C2.08984 41.5299 0.0898438 35.7099 0.0898438 24.2299C0.0898438 13.2299 2.08984 7.22995 6.08984 0.87995C6.21746 0.633585 6.4055 0.423626 6.63636 0.269721C6.86722 0.115815 7.13335 0.0229964 7.40984 -4.96818e-05C7.86022 -0.0178478 8.30673 0.0894524 8.69984 0.30995Z" fill="white"/>
<path d="M21.3602 7.40002C21.5642 7.3789 21.7703 7.40286 21.964 7.4702C22.1577 7.53753 22.3343 7.6466 22.4812 7.78969C22.6281 7.93278 22.7417 8.10639 22.8141 8.29826C22.8866 8.49012 22.9159 8.69555 22.9002 8.90002V29.81C22.8915 30.3457 22.9949 30.8772 23.2039 31.3705C23.4129 31.8638 23.7227 32.3079 24.1136 32.6742C24.5044 33.0406 24.9676 33.3211 25.4734 33.4978C25.9791 33.6744 26.5162 33.7433 27.0502 33.7C27.5792 33.73 28.1088 33.6516 28.6065 33.4695C29.1041 33.2875 29.5593 33.0057 29.9442 32.6415C30.329 32.2772 30.6354 31.8382 30.8445 31.3513C31.0536 30.8644 31.161 30.3399 31.1602 29.81V9.12002C31.1602 7.97002 31.6002 7.40002 32.5202 7.40002H36.3202C36.5242 7.3789 36.7303 7.40286 36.924 7.4702C37.1177 7.53753 37.2943 7.6466 37.4412 7.78969C37.5881 7.93278 37.7017 8.10639 37.7742 8.29826C37.8466 8.49012 37.8759 8.69555 37.8602 8.90002V29.81C37.8602 35.29 33.2702 40 27.0502 40C20.8302 40 16.2002 35.07 16.2002 29.68V9.07002C16.2002 7.62002 17.0302 7.40002 17.9202 7.40002H21.3602Z" fill="white"/>
<path d="M45.6795 39.2604C44.8395 39.2604 44.4795 38.6404 44.4795 37.7104V9.12039C44.4795 7.97039 44.9295 7.40039 45.8495 7.40039H54.8495C61.3795 7.40039 65.5295 11.8504 65.5295 16.9704C65.5295 22.2704 60.3695 26.4204 55.4195 26.4204H53.4895C51.9395 26.4204 51.1895 27.3004 51.1895 29.0604V37.8004C51.1895 38.8004 50.7495 39.2604 49.9095 39.2604H45.6795ZM54.9395 20.2604C56.9395 20.2604 58.6895 19.0204 58.6895 17.0404C58.6895 14.7804 57.0995 13.6404 54.6895 13.6404H52.9995C51.8095 13.6404 51.2395 14.2104 51.2395 15.3204V18.2704C51.2395 19.6404 51.8995 20.2704 52.9195 20.2704L54.9395 20.2604Z" fill="white"/>
<path d="M71.5298 39.2604C70.6998 39.2604 70.3398 38.6404 70.3398 37.7104V9.12039C70.3398 7.97039 70.7798 7.40039 71.7098 7.40039H80.7098C87.2398 7.40039 91.3898 11.8504 91.3898 16.9704C91.3898 22.2704 86.2298 26.4204 81.2798 26.4204H79.3498C77.7998 26.4204 77.0499 27.3004 77.0499 29.0604V37.8004C77.0499 38.8004 76.6098 39.2604 75.7698 39.2604H71.5298ZM80.7999 20.2604C82.7999 20.2604 84.5499 19.0204 84.5499 17.0404C84.5499 14.7804 82.9599 13.6404 80.5499 13.6404H78.8098C77.6198 13.6404 77.0499 14.2104 77.0499 15.3204V18.2704C77.0499 19.6404 77.7099 20.2704 78.7299 20.2704L80.7999 20.2604Z" fill="white"/>
<path d="M97.7502 39.2604C96.4702 39.2604 96.2002 38.3804 96.2002 37.1804V8.90039C96.2002 7.90039 96.6002 7.40039 97.3502 7.40039H113C113.92 7.40039 114.41 7.84039 114.41 8.67039V12.2904C114.41 13.2204 113.97 13.7104 113.04 13.7104H104.83C103.55 13.7104 102.89 14.3704 102.89 15.7104V18.1804C102.89 19.5504 103.64 20.1804 105.14 20.1804H110.08C111.14 20.1804 111.67 20.6204 111.67 21.4604V24.7704C111.67 25.8304 111.23 26.3604 110.35 26.3604H104.35C103.35 26.3604 102.85 26.9704 102.85 28.2504V31.2504C102.85 32.3504 103.6 32.8804 105.14 32.8804H112.74C113.84 32.8804 114.37 33.2304 114.37 33.8804V38.0304C114.37 38.7804 113.88 39.1804 112.96 39.1804L97.7502 39.2604Z" fill="white"/>
<path d="M130.18 27.8705C129.7 26.8705 129.3 26.6405 128.64 26.6405H127.4C126.74 26.6405 126.4 27.2505 126.4 28.4905V37.8005C126.4 38.8005 126.05 39.2605 125.03 39.2605H121C120.16 39.2605 119.72 38.7305 119.72 37.7105V9.21052C119.72 7.97052 120.03 7.40052 121.05 7.40052H131.2C132.488 7.3939 133.764 7.64254 134.956 8.13207C136.147 8.62159 137.229 9.34231 138.141 10.2526C139.052 11.1629 139.774 12.2446 140.264 13.4355C140.755 14.6263 141.005 15.9026 141 17.1905C140.917 18.5644 140.562 19.9082 139.956 21.144C139.35 22.3799 138.505 23.4834 137.47 24.3905C136.41 25.2305 136.37 25.2305 136.94 26.5905L141 36.4805C141.31 37.3205 141.13 37.7605 140.12 38.2405L136.63 39.7905C136.325 39.9048 135.987 39.8944 135.689 39.7616C135.392 39.6287 135.158 39.384 135.04 39.0805L130.18 27.8705ZM130.49 20.3305C130.954 20.3659 131.421 20.3068 131.862 20.1568C132.303 20.0068 132.709 19.7691 133.056 19.4579C133.403 19.1468 133.683 18.7686 133.879 18.3463C134.076 17.9239 134.185 17.4661 134.2 17.0005C134.2 15.2805 132.74 13.7405 130.27 13.7405H128.19C127.958 13.704 127.721 13.7212 127.497 13.7908C127.273 13.8604 127.068 13.9806 126.898 14.142C126.728 14.3034 126.598 14.5017 126.516 14.7217C126.435 14.9416 126.405 15.1773 126.43 15.4105V18.4105C126.43 19.6005 126.96 20.4105 128.02 20.4105L130.49 20.3305Z" fill="white"/>
<path d="M149.549 0.879693C153.549 7.23969 155.549 13.2397 155.549 24.2297C155.549 35.6597 153.599 41.6197 149.499 47.7097C149.358 47.9716 149.147 48.189 148.889 48.3374C148.631 48.4858 148.337 48.5593 148.039 48.5497C147.744 48.5335 147.458 48.4404 147.209 48.2797L143.809 46.5197C143.229 46.2097 143.149 45.5897 143.589 44.7497C146.279 39.0997 148.839 35.7497 148.839 24.2297C148.839 13.3297 146.499 8.91969 143.589 3.87969C143.149 3.03969 143.279 2.42969 143.939 2.02969L146.859 0.309693C147.249 0.0905038 147.692 -0.0167698 148.139 -0.00030686C148.432 0.00425736 148.718 0.0886127 148.967 0.243676C149.215 0.39874 149.417 0.618638 149.549 0.879693Z" fill="white"/>
</g>
<defs>
<clipPath id="clip0_2647_8">
<rect width="155.56" height="48.55" fill="white"/>
</clipPath>
</defs>
</svg>

<svg xmlns="http://www.w3.org/2000/svg" viewBox="0 0 155.56 48.55"><g id="Layer_2" data-name="Layer 2"><g id="Vrstva_1" data-name="Vrstva 1"><path d="M8.7.31,11.61,2c.66.4.79,1,.35,1.85-2.91,5-5.25,9.45-5.25,20.35C6.71,35.79,9.27,39.1,12,44.75c.44.84.35,1.46-.22,1.77l-3.4,1.76a1.74,1.74,0,0,1-.84.27,1.59,1.59,0,0,1-1.45-.84c-4-6.18-6-12-6-23.48,0-11,2-17,6-23.35A1.64,1.64,0,0,1,7.41,0,2.44,2.44,0,0,1,8.7.31"/><path d="M21.36,7.4A1.4,1.4,0,0,1,22.9,8.9V29.81a3.84,3.84,0,0,0,4.15,3.89,3.89,3.89,0,0,0,4.11-3.89V9.12c0-1.15.44-1.72,1.36-1.72h3.8a1.4,1.4,0,0,1,1.54,1.5V29.81C37.86,35.29,33.27,40,27.05,40S16.2,35.07,16.2,29.68V9.07c0-1.45.83-1.67,1.72-1.67Z"/><path d="M45.68,39.26c-.84,0-1.2-.62-1.2-1.55V9.12c0-1.15.45-1.72,1.37-1.72h9c6.53,0,10.68,4.45,10.68,9.57,0,5.3-5.16,9.45-10.11,9.45H53.49c-1.55,0-2.3.88-2.3,2.64V37.8c0,1-.44,1.46-1.28,1.46Zm9.26-19c2,0,3.75-1.24,3.75-3.22,0-2.26-1.59-3.4-4-3.4H53c-1.19,0-1.76.57-1.76,1.68v2.95c0,1.37.66,2,1.68,2Z"/><path d="M71.53,39.26c-.83,0-1.19-.62-1.19-1.55V9.12c0-1.15.44-1.72,1.37-1.72h9c6.53,0,10.68,4.45,10.68,9.57,0,5.3-5.16,9.45-10.11,9.45H79.35c-1.55,0-2.3.88-2.3,2.64V37.8c0,1-.44,1.46-1.28,1.46Zm9.27-19c2,0,3.75-1.24,3.75-3.22,0-2.26-1.59-3.4-4-3.4H78.81c-1.19,0-1.76.57-1.76,1.68v2.95c0,1.37.66,2,1.68,2Z"/><path d="M97.75,39.26c-1.28,0-1.55-.88-1.55-2.08V8.9c0-1,.4-1.5,1.15-1.5H113c.92,0,1.41.44,1.41,1.27v3.62c0,.93-.44,1.42-1.37,1.42h-8.21c-1.28,0-1.94.66-1.94,2v2.47c0,1.37.75,2,2.25,2h4.94c1.06,0,1.59.44,1.59,1.28v3.31q0,1.59-1.32,1.59h-6c-1,0-1.5.61-1.5,1.89v3c0,1.1.75,1.63,2.29,1.63h7.6c1.1,0,1.63.35,1.63,1v4.15c0,.75-.49,1.15-1.41,1.15Z"/><path d="M130.18,27.87c-.48-1-.88-1.23-1.54-1.23H127.4c-.66,0-1,.61-1,1.85V37.8c0,1-.35,1.46-1.37,1.46H121c-.84,0-1.28-.53-1.28-1.55V9.21c0-1.24.31-1.81,1.33-1.81H131.2A9.75,9.75,0,0,1,141,17.19a10.41,10.41,0,0,1-3.53,7.2c-1.06.84-1.1.84-.53,2.2L141,36.48c.31.84.13,1.28-.88,1.76l-3.49,1.55a1.24,1.24,0,0,1-1.59-.71Zm.31-7.54A3.45,3.45,0,0,0,134.2,17c0-1.72-1.46-3.26-3.93-3.26h-2.08a1.53,1.53,0,0,0-1.76,1.67v3c0,1.19.53,2,1.59,2Z"/><path d="M149.55.88c4,6.36,6,12.36,6,23.35,0,11.43-1.95,17.39-6.05,23.48a1.6,1.6,0,0,1-1.46.84,1.7,1.7,0,0,1-.83-.27l-3.4-1.76c-.58-.31-.66-.93-.22-1.77,2.69-5.65,5.25-9,5.25-20.52,0-10.9-2.34-15.31-5.25-20.35-.44-.84-.31-1.45.35-1.85L146.86.31A2.43,2.43,0,0,1,148.14,0a1.61,1.61,0,0,1,1.41.88"/></g></g></svg>
